X: 1
T: Margaret's Strathspey
C: Ian Holmes
R: strathspey
Z: 2010 John Chambers <jc:trillian.mit.edu>
M: C
L: 1/8
K: G
D2 \
| "G"G2 B>A G<D D>G | "C"E>G c>E "G"E<D D>G \
| "C"E>G c>E "G"D>G B>G | "A7"A>^c e>g "D7"fed =cBA ||
y3 \
| "G"G2 B>A G<D D>G | "C"E>G c>E "G"E<D D>G \
| "C"E>G c>e "G"d>d' b>g | "D7"fed cBA "G"G2 |]
B2 \
| "Em"e<B B>c B<G G>A | "B7"B<F F>A "Em"G<E E2 \
| "D"d<A A>d A<F F>B | "A7"A>G F>E "D"D4 ||
y3 \
| "G"G2 B>A G<D D>G | "C"E>G c>E "G"E<D D>G \
| "C"E>G c>e "G"d>d' b>g | "D7"fed cBA "G"G2 |]
